SVG_Azure_Grouped/Management/Application Insights Session.svg

<?xml version="1.0" encoding="UTF-8" standalone="no"?>
<!-- Generated by Microsoft Visio, SVG Export Application Insights Session.svg Page-1 -->

<svg
   xmlns:dc="http://purl.org/dc/elements/1.1/"
   xmlns:cc="http://creativecommons.org/ns#"
   xmlns:rdf="http://www.w3.org/1999/02/22-rdf-syntax-ns#"
   xmlns:svg="http://www.w3.org/2000/svg"
   xmlns="http://www.w3.org/2000/svg"
   xmlns:sodipodi="http://sodipodi.sourceforge.net/DTD/sodipodi-0.dtd"
   xmlns:inkscape="http://www.inkscape.org/namespaces/inkscape"
   width="0.78740174in"
   height="0.74804765in"
   viewBox="0 0 56.692993 53.859516"
   xml:space="preserve"
   class="st8"
   version="1.1"
   id="svg89"
   sodipodi:docname="Application Insights Session.svg"
   style="font-size:12px;overflow:visible;color-interpolation-filters:sRGB;fill:none;fill-rule:evenodd;stroke-linecap:square;stroke-miterlimit:3"
   inkscape:version="0.92.5 (2060ec1f9f, 2020-04-08)"><metadata
   id="metadata95"><rdf:RDF><cc:Work
       rdf:about=""><dc:format>image/svg+xml</dc:format><dc:type
         rdf:resource="http://purl.org/dc/dcmitype/StillImage" /></cc:Work></rdf:RDF></metadata><defs
   id="defs93" /><sodipodi:namedview
   pagecolor="#ffffff"
   bordercolor="#666666"
   borderopacity="1"
   objecttolerance="10"
   gridtolerance="10"
   guidetolerance="10"
   inkscape:pageopacity="0"
   inkscape:pageshadow="2"
   inkscape:window-width="640"
   inkscape:window-height="480"
   id="namedview91"
   showgrid="false"
   inkscape:zoom="1.7679873"
   inkscape:cx="37.795224"
   inkscape:cy="21.38839"
   inkscape:window-x="0"
   inkscape:window-y="0"
   inkscape:window-maximized="0"
   inkscape:current-layer="svg89" />
	<style
   type="text/css"
   id="style2">
	<![CDATA[
		.st1 {fill:#59b4d9;stroke:none;stroke-linecap:butt;stroke-width:12.24}
		.st2 {fill:#a0a1a2;stroke:none;stroke-linecap:butt;stroke-width:12.24}
		.st3 {fill:#ffffff;fill-opacity:0.2;stroke:none;stroke-linecap:butt;stroke-width:12.24}
		.st4 {fill:#ffffff;stroke:none;stroke-linecap:butt;stroke-width:12.24}
		.st5 {fill:#7a7a7a;stroke:none;stroke-linecap:butt;stroke-width:12.24}
		.st6 {fill:#b8d432;fill-opacity:0.6;stroke:none;stroke-linecap:butt;stroke-width:12.24}
		.st7 {fill:#1e1e1e;stroke:none;stroke-linecap:butt;stroke-width:12.24}
		.st8 {fill:none;fill-rule:evenodd;font-size:12px;overflow:visible;stroke-linecap:square;stroke-miterlimit:3}
	]]>
	</style>

	<g
   id="g87"
   transform="translate(-12.24,-12.2388)">
		<title
   id="title4">Page-1</title>
		<g
   id="group13211-1"
   transform="translate(12.24,-34.0157)">
			<title
   id="title6">Application Insights Session.13211</title>
			<g
   id="group13212-2">
				<title
   id="title8">Sheet.13212</title>
				<g
   id="shape13213-3"
   transform="translate(0,-13.6655)">
					<title
   id="title10">Sheet.13213</title>
					<path
   d="m 0,98.38 c 0,0.96 0.77,1.73 1.73,1.73 h 44.25 c 0.96,0 1.74,-0.77 1.74,-1.73 V 67.94 H 0 Z"
   class="st1"
   id="path12"
   inkscape:connector-curvature="0"
   style="fill:#59b4d9;stroke:none;stroke-width:12.23999977;stroke-linecap:butt" />
				</g>
				<g
   id="shape13214-5"
   transform="translate(0,-43.523)">
					<title
   id="title15">Sheet.13214</title>
					<path
   d="M 45.98,89.78 H 1.73 C 0.77,89.78 0,90.55 0,91.51 v 8.6 h 47.72 v -8.6 c 0,-0.96 -0.78,-1.73 -1.74,-1.73 z"
   class="st2"
   id="path17"
   inkscape:connector-curvature="0"
   style="fill:#a0a1a2;stroke:none;stroke-width:12.23999977;stroke-linecap:butt" />
				</g>
				<g
   id="shape13215-7"
   transform="translate(0.00568065,-13.6655)">
					<title
   id="title20">Sheet.13215</title>
					<path
   d="M 1.73,59.92 C 0.78,59.92 0,60.7 0,61.65 v 36.73 c 0,0.96 0.78,1.73 1.73,1.73 H 5.67 L 37.66,59.92 Z"
   class="st3"
   id="path22"
   inkscape:connector-curvature="0"
   style="fill:#ffffff;fill-opacity:0.2;stroke:none;stroke-width:12.23999977;stroke-linecap:butt" />
				</g>
				<g
   id="shape13216-9"
   transform="translate(12.4974,-46.9681)">
					<title
   id="title25">Sheet.13216</title>
					<rect
   x="0"
   y="96.6689"
   width="30.675501"
   height="3.4450901"
   class="st4"
   id="rect27"
   style="fill:#ffffff;stroke:none;stroke-width:12.23999977;stroke-linecap:butt" />
				</g>
				<g
   id="shape13217-11"
   transform="translate(2.38587,-44.7862)">
					<title
   id="title30">Sheet.13217</title>
					<path
   d="m 7.73,96.21 a 3.865,3.9066233 0 0 1 -7.73,0 3.865,3.9066233 0 1 1 7.73,0 z"
   class="st1"
   id="path32"
   inkscape:connector-curvature="0"
   style="fill:#59b4d9;stroke:none;stroke-width:12.23999977;stroke-linecap:butt" />
				</g>
				<g
   id="shape13218-13"
   transform="translate(3.40839,-45.8197)">
					<title
   id="title35">Sheet.13218</title>
					<path
   d="m 2.27,97.82 2.27,2.29 H 2.84 L 0,97.24 2.84,94.37 h 1.7 l -2.27,2.3 h 4.55 v 1.15 z"
   class="st4"
   id="path37"
   inkscape:connector-curvature="0"
   style="fill:#ffffff;stroke:none;stroke-width:12.23999977;stroke-linecap:butt" />
				</g>
				<g
   id="shape13219-15"
   transform="translate(20.564)">
					<title
   id="title40">Sheet.13219</title>
					<ellipse
   cx="18.064501"
   cy="81.855003"
   rx="18.064501"
   ry="18.259001"
   class="st5"
   id="ellipse42"
   style="fill:#7a7a7a;stroke:none;stroke-width:12.23999977;stroke-linecap:butt" />
				</g>
				<g
   id="shape13220-17"
   transform="translate(24.0542,-3.52892)">
					<title
   id="title45">Sheet.13220</title>
					<path
   d="M 13.04,70.65 A 14.5936,14.7507 -180 0 0 3.18,76.06 14.5993,14.7565 -180 0 0 0,86.94 a 14.6015,14.7588 -180 0 0 5.35,9.96 14.5856,14.7427 -180 0 0 10.76,3.21 14.6118,14.7691 -180 0 0 9.85,-5.41 14.5993,14.7565 -180 0 0 3.19,-10.87 c -0.43,-4.11 -2.5,-7.62 -5.46,-10.04 -2.49,-2.04 -5.67,-3.22 -9.08,-3.22 -0.52,0 -1.04,0.03 -1.57,0.08 z"
   class="st4"
   id="path47"
   inkscape:connector-curvature="0"
   style="fill:#ffffff;stroke:none;stroke-width:12.23999977;stroke-linecap:butt" />
				</g>
				<g
   id="shape13221-19"
   transform="translate(37.4923,-12.6653)">
					<title
   id="title50">Sheet.13221</title>
					<path
   d="M 8.4,84.97 C 6.07,83.06 3.1,82 0.04,82 H 0 v 12.51 l 12.75,5.6 c 0.65,-1.88 0.9,-3.87 0.69,-5.87 -0.38,-3.63 -2.17,-6.92 -5.04,-9.27 z"
   class="st6"
   id="path52"
   inkscape:connector-curvature="0"
   style="fill:#b8d432;fill-opacity:0.6;stroke:none;stroke-width:12.23999977;stroke-linecap:butt" />
				</g>
				<g
   id="shape13222-21"
   transform="translate(38.4035,-13.5794)">
					<title
   id="title55">Sheet.13222</title>
					<path
   d="M 7.64,100.11 0.86,97.68 A 1.41259,1.4278 0 1 1 1.8,94.99 l 6.79,2.43 a 1.4129094,1.4281229 0 0 1 -0.95,2.69 z"
   class="st5"
   id="path57"
   inkscape:connector-curvature="0"
   style="fill:#7a7a7a;stroke:none;stroke-width:12.23999977;stroke-linecap:butt" />
				</g>
				<g
   id="shape13223-23"
   transform="translate(37.2083,-16.3205)">
					<title
   id="title60">Sheet.13223</title>
					<path
   d="M 1.42,100.11 C 0.64,100.11 0,99.48 0,98.69 V 86.61 c 0,-0.79 0.64,-1.42 1.42,-1.42 0.78,0 1.42,0.63 1.42,1.42 v 12.08 c 0,0.79 -0.63,1.42 -1.42,1.42 z"
   class="st5"
   id="path62"
   inkscape:connector-curvature="0"
   style="fill:#7a7a7a;stroke:none;stroke-width:12.23999977;stroke-linecap:butt" />
				</g>
				<g
   id="shape13224-25"
   transform="translate(36.4243,-15.6246)">
					<title
   id="title65">Sheet.13224</title>
					<ellipse
   cx="2.06321"
   cy="98.028603"
   rx="2.06321"
   ry="2.0854299"
   class="st7"
   id="ellipse67"
   style="fill:#1e1e1e;stroke:none;stroke-width:12.23999977;stroke-linecap:butt" />
				</g>
				<g
   id="shape13225-27"
   transform="translate(29.3781,-9.12605)">
					<title
   id="title70">Sheet.13225</title>
					<path
   d="M 0,82.21 0.57,81.63 2.35,83.42 1.78,84 Z m 8.84,-4.02 h 0.81 v 2.54 H 8.84 Z m 7.22,5.31 1.77,-1.79 0.57,0.58 -1.77,1.79 z m 3.12,7.06 h 2.51 v 0.82 h -2.51 z m -3.24,7.76 0.57,-0.58 1.78,1.8 -0.57,0.57 z"
   class="st5"
   id="path72"
   inkscape:connector-curvature="0"
   style="fill:#7a7a7a;stroke:none;stroke-width:12.23999977;stroke-linecap:butt" />
				</g>
				<g
   id="shape13226-29"
   transform="translate(29.3781,-5.72919)">
					<title
   id="title75">Sheet.13226</title>
					<path
   d="m 15.94,94.92 0.57,-0.58 1.78,1.8 -0.57,0.58 z m -7.1,2.65 h 0.81 v 2.54 H 8.84 Z M 0,78.81 0.57,78.23 2.35,80.03 1.78,80.6 Z M 0.12,96.21 1.9,94.42 2.47,95 0.7,96.79 Z"
   class="st5"
   id="path77"
   inkscape:connector-curvature="0"
   style="fill:#7a7a7a;stroke:none;stroke-width:12.23999977;stroke-linecap:butt" />
				</g>
				<g
   id="shape13227-31"
   transform="translate(26.0197,-9.0514)">
					<title
   id="title80">Sheet.13227</title>
					<path
   d="m 3.48,99.54 1.78,-1.8 0.57,0.58 -1.78,1.79 z M 0,90.49 H 2.51 V 91.3 H 0 Z"
   class="st5"
   id="path82"
   inkscape:connector-curvature="0"
   style="fill:#7a7a7a;stroke:none;stroke-width:12.23999977;stroke-linecap:butt" />
				</g>
			</g>
		</g>
	</g>
</svg>

<?xml version="1.0" encoding="UTF-8" standalone="no"?>
<!DOCTYPE svg PUBLIC "-//W3C//DTD SVG 1.1//EN" "http://www.w3.org/Graphics/SVG/1.1/DTD/svg11.dtd">
<!-- Generated by Microsoft Visio, SVG Export Application Insights Session.svg Page-1 -->
<svg xmlns="http://www.w3.org/2000/svg" xmlns:xlink="http://www.w3.org/1999/xlink" xmlns:ev="http://www.w3.org/2001/xml-events"
		width="1.1274in" height="1.39047in" viewBox="0 0 81.1729 100.114" xml:space="preserve" color-interpolation-filters="sRGB"
		class="st8">
	<style type="text/css">
	<![CDATA[
		.st1 {fill:#59b4d9;stroke:none;stroke-linecap:butt;stroke-width:12.24}
		.st2 {fill:#a0a1a2;stroke:none;stroke-linecap:butt;stroke-width:12.24}
		.st3 {fill:#ffffff;fill-opacity:0.2;stroke:none;stroke-linecap:butt;stroke-width:12.24}
		.st4 {fill:#ffffff;stroke:none;stroke-linecap:butt;stroke-width:12.24}
		.st5 {fill:#7a7a7a;stroke:none;stroke-linecap:butt;stroke-width:12.24}
		.st6 {fill:#b8d432;fill-opacity:0.6;stroke:none;stroke-linecap:butt;stroke-width:12.24}
		.st7 {fill:#1e1e1e;stroke:none;stroke-linecap:butt;stroke-width:12.24}
		.st8 {fill:none;fill-rule:evenodd;font-size:12px;overflow:visible;stroke-linecap:square;stroke-miterlimit:3}
	]]>
	</style>

	<g>
		<title>Page-1</title>
		<g id="group12918-1" transform="translate(12.24,-34.0157)">
			<title>Application Insights Session.12918</title>
			<g id="group12919-2">
				<title>Sheet.12919</title>
				<g id="shape12920-3" transform="translate(-2.8777E-13,-13.6655)">
					<title>Sheet.12920</title>
					<path d="M0 98.38 C0 99.34 0.77 100.11 1.73 100.11 L45.98 100.11 C46.94 100.11 47.72 99.34 47.72 98.38 L47.72
								 67.94 L0 67.94 L0 98.38 Z" class="st1"/>
				</g>
				<g id="shape12921-5" transform="translate(-2.8777E-13,-43.523)">
					<title>Sheet.12921</title>
					<path d="M45.98 89.78 L1.73 89.78 C0.77 89.78 0 90.55 0 91.51 L0 100.11 L47.72 100.11 L47.72 91.51 C47.72 90.55
								 46.94 89.78 45.98 89.78 Z" class="st2"/>
				</g>
				<g id="shape12922-7" transform="translate(0.00568065,-13.6655)">
					<title>Sheet.12922</title>
					<path d="M1.73 59.92 C0.78 59.92 0 60.7 0 61.65 L0 98.38 C0 99.34 0.78 100.11 1.73 100.11 L5.67 100.11 L37.66
								 59.92 L1.73 59.92 Z" class="st3"/>
				</g>
				<g id="shape12923-9" transform="translate(12.4974,-46.9681)">
					<title>Sheet.12923</title>
					<rect x="0" y="96.6689" width="30.6755" height="3.44509" class="st4"/>
				</g>
				<g id="shape12924-11" transform="translate(2.38587,-44.7862)">
					<title>Sheet.12924</title>
					<path d="M7.73 96.21 A3.86284 3.90444 0 0 1 -0 96.21 A3.86284 3.90444 0 1 1 7.73 96.21 Z" class="st1"/>
				</g>
				<g id="shape12925-13" transform="translate(3.40839,-45.8197)">
					<title>Sheet.12925</title>
					<path d="M2.27 97.82 L4.54 100.11 L2.84 100.11 L0 97.24 L2.84 94.37 L4.54 94.37 L2.27 96.67 L6.82 96.67 L6.82
								 97.82 L2.27 97.82 Z" class="st4"/>
				</g>
				<g id="shape12926-15" transform="translate(20.564,0)">
					<title>Sheet.12926</title>
					<ellipse cx="18.0645" cy="81.855" rx="18.0645" ry="18.259" class="st5"/>
				</g>
				<g id="shape12927-17" transform="translate(24.0542,-3.52892)">
					<title>Sheet.12927</title>
					<path d="M13.04 70.65 A14.5936 14.7507 -180 0 0 3.18 76.06 A14.5993 14.7565 -180 0 0 0 86.94 A14.6015 14.7588
								 -180 0 0 5.35 96.9 A14.5856 14.7427 -180 0 0 16.11 100.11 A14.6118 14.7691 -180 0 0 25.96 94.7 A14.5993
								 14.7565 -180 0 0 29.15 83.83 C28.72 79.72 26.65 76.21 23.69 73.79 C21.2 71.75 18.02 70.57 14.61
								 70.57 C14.09 70.57 13.57 70.6 13.04 70.65 Z" class="st4"/>
				</g>
				<g id="shape12928-19" transform="translate(37.4923,-12.6653)">
					<title>Sheet.12928</title>
					<path d="M8.4 84.97 C6.07 83.06 3.1 82 0.04 82 L0 82 L0 94.51 L12.75 100.11 C13.4 98.23 13.65 96.24 13.44 94.24
								 C13.06 90.61 11.27 87.32 8.4 84.97 Z" class="st6"/>
				</g>
				<g id="shape12929-21" transform="translate(38.4035,-13.5794)">
					<title>Sheet.12929</title>
					<path d="M7.64 100.11 L0.86 97.68 A1.41259 1.4278 0 1 1 1.8 94.99 L8.59 97.42 A1.41259 1.4278 0 0 1 7.64 100.11
								 Z" class="st5"/>
				</g>
				<g id="shape12930-23" transform="translate(37.2083,-16.3205)">
					<title>Sheet.12930</title>
					<path d="M1.42 100.11 C0.64 100.11 0 99.48 0 98.69 L0 86.61 C0 85.82 0.64 85.19 1.42 85.19 C2.2 85.19 2.84 85.82
								 2.84 86.61 L2.84 98.69 C2.84 99.48 2.21 100.11 1.42 100.11 Z" class="st5"/>
				</g>
				<g id="shape12931-25" transform="translate(36.4243,-15.6246)">
					<title>Sheet.12931</title>
					<ellipse cx="2.06321" cy="98.0286" rx="2.06321" ry="2.08543" class="st7"/>
				</g>
				<g id="shape12932-27" transform="translate(29.3781,-9.12605)">
					<title>Sheet.12932</title>
					<path d="M0 82.21 L0.57 81.63 L2.35 83.42 L1.78 84 L0 82.21 ZM8.84 78.19 L9.65 78.19 L9.65 80.73 L8.84 80.73
								 L8.84 78.19 ZM16.06 83.5 L17.83 81.71 L18.4 82.29 L16.63 84.08 L16.06 83.5 ZM19.18 90.56 L21.69
								 90.56 L21.69 91.38 L19.18 91.38 L19.18 90.56 ZM15.94 98.32 L16.51 97.74 L18.29 99.54 L17.72 100.11
								 L15.94 98.32 Z" class="st5"/>
				</g>
				<g id="shape12933-29" transform="translate(29.3781,-5.72919)">
					<title>Sheet.12933</title>
					<path d="M15.94 94.92 L16.51 94.34 L18.29 96.14 L17.72 96.72 L15.94 94.92 ZM8.84 97.57 L9.65 97.57 L9.65 100.11
								 L8.84 100.11 L8.84 97.57 ZM0 78.81 L0.57 78.23 L2.35 80.03 L1.78 80.6 L0 78.81 ZM0.12 96.21 L1.9
								 94.42 L2.47 95 L0.7 96.79 L0.12 96.21 Z" class="st5"/>
				</g>
				<g id="shape12934-31" transform="translate(26.0197,-9.0514)">
					<title>Sheet.12934</title>
					<path d="M3.48 99.54 L5.26 97.74 L5.83 98.32 L4.05 100.11 L3.48 99.54 ZM0 90.49 L2.51 90.49 L2.51 91.3 L0 91.3
								 L0 90.49 Z" class="st5"/>
				</g>
			</g>
		</g>
	</g>
</svg>
